X:1
T:Plough Share, The
C:John Thomas
M:2/4
L:1/8
R:Air
N:
B:John Thomas – Y Caniedydd Cymreig/The Cambrian Minstrel (1845, p. 71)
Z:AK/Fiddler’s Companion
K:Bb
F|BB Bd|cB AB|cc d/f/e/d/|c3c |df ec|
dc B>G|Ac BG/F/ |F3||F|AB cF|AB ce|
dB de|f3e|dg fe|{d}dg {f}!fermata!fe|d B/>c/ d c/>B/|B2z||

